X: 28
T: No_12_Second_Initiation_Song.krn
N: Derived from No_12_Second_Initiation_Song.krn
%%abc-version 2.0
%%abcx-abcm2ps-target-version 5.9.1 (29 Sep 2008)
%%abc-creator hum2abc beta
%%abcx-conversion-date 2019/03/15 08:29:13
%%humdrum-veritas 1619808684
%%humdrum-veritas-data 547973088
%%linebreak <none>
%%barnumbers 0
L: 1/8
M: 2/4
%%staves {1 2}
V: 1 clef=bass
V: 2 clef=bass
K: Ab
[V:1] [K:clef=bass][M:2/4]CC CC | 
[V:2] [K:clef=bass][M:2/4]G,,G,, G,,G,, | 
[V:1] C4 | 
[V:2] G,,G,, G,,G,, | 
[V:1] C4 | 
[V:2] z4 | 
[V:1] CC CB, | 
[V:2] z4 | 
[V:1] B,4 | 
[V:2] z4 | 
[V:1] CC CB, | 
[V:2] z4 | 
[V:1] B,4 | 
[V:2] z4 | 
[V:1] B,4 | 
[V:2] z4 | 
[V:1] B,A, A,F, | 
[V:2] z4 | 
[V:1] F,4 | 
[V:2] z4 | 
[V:1] CC CB, | 
[V:2] z4 | 
[V:1] B,4 | 
[V:2] z4 | 
[V:1] B,4 | 
[V:2] z4 | 
[V:1] B,A, A,F, | 
[V:2] z4 | 
[V:1] F,4 | 
[V:2] z4 | 
[V:1] A,B, A,F, | 
[V:2] z4 | 
[V:1] F,4 | 
[V:2] z4 | 
[V:1] F,4 | 
[V:2] z4 | 
[V:1] F,C, C,C, | 
[V:2] z4 | 
[V:1] C,4 | 
[V:2] z4 | 
[V:1] C,C, C,C, | 
[V:2] z4 | 
[V:1] C,4- | 
[V:2] z4 | 
[V:1] C,4 |]  
[V:2] z4 |]  



